icons/chevrons-right-16.svg

<svg width="16" height="16" viewBox="0 0 16 16" fill="none" xmlns="http://www.w3.org/2000/svg">
<path fill-rule="evenodd" clip-rule="evenodd" d="M8.25105 3.10823C8.58579 2.77349 9.1285 2.77349 9.46323 3.10823L13.7489 7.39394C14.0837 7.72868 14.0837 8.27139 13.7489 8.60613L9.46323 12.8918C9.1285 13.2266 8.58579 13.2266 8.25105 12.8918C7.91632 12.5571 7.91632 12.0144 8.25105 11.6797L11.9307 8.00003L8.25105 4.32041C7.91632 3.98568 7.91632 3.44296 8.25105 3.10823Z" fill="#272431"/>
<path fill-rule="evenodd" clip-rule="evenodd" d="M2.25105 3.10823C2.58579 2.77349 3.1285 2.77349 3.46323 3.10823L7.74895 7.39394C8.08368 7.72868 8.08368 8.27139 7.74895 8.60613L3.46323 12.8918C3.1285 13.2266 2.58579 13.2266 2.25105 12.8918C1.91632 12.5571 1.91632 12.0144 2.25105 11.6797L5.93067 8.00003L2.25105 4.32041C1.91632 3.98568 1.91632 3.44296 2.25105 3.10823Z" fill="#272431"/>
</svg>

<svg xmlns="http://www.w3.org/2000/svg" width="16" height="16" viewBox="0 0 16 16"><path fill-rule="evenodd" d="M8.251 3.108a.857.857 0 011.212 0l4.286 4.286a.857.857 0 010 1.212l-4.286 4.286a.857.857 0 11-1.212-1.212L11.931 8 8.25 4.32a.857.857 0 010-1.212z"/><path fill-rule="evenodd" d="M2.251 3.108a.857.857 0 011.212 0L7.75 7.394a.857.857 0 010 1.212l-4.286 4.286a.857.857 0 11-1.212-1.212L5.931 8 2.25 4.32a.857.857 0 010-1.212z"/></svg>
